X:159
T:Across the Fence to the Neighbour's Wife
T:Across the Fence
T:Crossing the Fence
R:hornpipe
C:Brendan McGlinchey
D:Dolores Keane & John Faulkner: Broken Hearted I'll Wander
Z:id:hn-hornpipe-159
M:C|
L:1/8
K:G
(3DEF | G2BG ABcA | dgge dBGB | c3d BGDB | (3cBA BG AF~F2 |
GDB,D G,B,DG | BG (3ABc dBGB | dg (3Bcd edcF |1 AGGF G2 :|2 AGGF GBAG ||
|: (3FED A,D FAcA | BGDG Bcdg | ec~c2 dB~B2 | cAag fdcA |
DB~B2 Dc~c2 | d^cde dBGB | dg (3Bcd edcF |1 AGGF GBAG :|2 AGGF GABc ||
|: dg~g2 dgbg | ~g2bg agfg | ea~a2 agfe | ed^ce d2d=c |
(3Bcd BG (3ABc AF | GDB,D GABc | dg (3Bcd edcF |1 AGGF GABc :|2 AGGF G2 ||
P:variations
|: GA | B2BG cBcA | dgge dBGB | cBcd BGDB | BAAG AF~F2 |
GDBD GABc | dgge dBGB | dG (3Bcd edcF | AGGF G2 :|
|: AG | FDAD FAcA | BG~G2 DGBg | ec~c2 dB~B2 | cAag fd (3cBA |
DB~B2 Dc~c2 | d2 (3ed^c dBGB | dg (3Bcd edcF | AGGF G2 :|
|: Bc | dggf g2bg | ~g2bg agfg | eaag a2ag | fed^c d2d=c |
(3Bcd BG (3ABc AF | GDBD GABc | dg (3Bcd edcF | AGGF G2 :|

